svg/300/sharp/scanner.svg

<svg xmlns="http://www.w3.org/2000/svg" width="48" height="48" viewBox="0 -960 960 960"><path d="m746-445.384-574.614-223.46 15.846-44.999 632.767 246.229v287.613H140.001v-265.383H746Zm28.615 219.999V-400h-589.23v174.615h589.23Zm-386.153-64.616h321.537v-45.383H388.462v45.383Zm-203.077 64.616V-400v174.615Zm59.231-59.231h56.153v-56.153h-56.153v56.153Z"/></svg>

<svg xmlns="http://www.w3.org/2000/svg" width="48" height="48" viewBox="0 -960 960 960"><path d="M746-445.38 171.39-668.84l15.84-45L820-467.61V-180H140v-265.38h606Zm28.61 219.99V-400H185.39v174.61h589.22ZM388.46-290H710v-45.38H388.46V-290Zm-203.07 64.61V-400v174.61Zm59.23-59.23h56.15v-56.15h-56.15v56.15Z"/></svg>
